packages/kaspersky-hexa-ui-icons/src/iconsSVGs/24/Tool.svg

<svg width="24" height="24" viewBox="0 0 24 24" fill="none" xmlns="http://www.w3.org/2000/svg">
<path fill-rule="evenodd" clip-rule="evenodd" d="M4.81521 3.5601C4.77216 3.87046 4.87707 4.18304 5.09862 4.40459L8.58584 7.89182L7.87874 8.59892L4.39151 5.1117C4.16996 4.89015 3.85738 4.78524 3.54702 4.82829C3.23667 4.87133 2.96444 5.05735 2.81154 5.33084C1.4283 7.80515 1.7867 10.9922 3.89157 13.097C5.51971 14.7252 7.79578 15.3079 9.88641 14.8492L16.7515 21.7143C17.142 22.1049 17.7752 22.1049 18.1657 21.7143L21.7012 18.1788C22.0918 17.7883 22.0918 17.1551 21.7012 16.7646L14.8362 9.89949C15.2948 7.80886 14.7121 5.53279 13.084 3.90465C10.9791 1.79978 7.79207 1.44138 5.31776 2.82463C5.04427 2.97752 4.85825 3.24975 4.81521 3.5601ZM7.60916 4.0867C9.0332 3.80477 10.5671 4.21619 11.6697 5.31886C12.9053 6.55439 13.2736 8.33073 12.7691 9.89035C12.6535 10.2477 12.7479 10.6396 13.0134 10.9052L19.5799 17.4717L17.4586 19.593L10.8921 13.0265C10.6266 12.761 10.2346 12.6666 9.87726 12.7822C8.31765 13.2866 6.54131 12.9183 5.30578 11.6828C4.20311 10.5801 3.79169 9.04628 4.07362 7.62224L7.17163 10.7202C7.56215 11.1108 8.19532 11.1108 8.58584 10.7202L10.7072 8.59892C11.0977 8.2084 11.0977 7.57524 10.7072 7.18471L7.60916 4.0867Z" fill="black"/>
</svg>

<svg xmlns="http://www.w3.org/2000/svg" width="24" height="24" fill="none" viewBox="0 0 24 24"><path d="M24 0H0v24h24z"/><path fill="#000" fill-rule="evenodd" d="M4.8151 3.5601a1 1 0 0 0 .2834.8445l3.4872 3.4872-.7071.7071-3.4872-3.4872a1 1 0 0 0-1.58.2191c-1.3832 2.4744-1.0248 5.6614 1.08 7.7663 1.6282 1.628 3.9042 2.2108 5.9949 1.7522l6.865 6.865c.3906.3906 1.0237.3906 1.4143 0l3.5355-3.5355c.3905-.3905.3905-1.0237 0-1.4142l-6.865-6.8651c.4585-2.0906-.1241-4.3667-1.7523-5.9948-2.1049-2.105-5.2919-2.4633-7.7662-1.08a1 1 0 0 0-.5025.7354m2.7939.5266c1.4241-.282 2.9579.1295 4.0606 1.2322 1.2355 1.2355 1.6038 3.0118 1.0993 4.5715a1 1 0 0 0 .2444 1.0148l6.5665 6.5665-2.1213 2.1213-6.5665-6.5664a1 1 0 0 0-1.0149-.2444c-1.5596.5045-3.3359.1362-4.5715-1.0994-1.1026-1.1027-1.5141-2.6365-1.2321-4.0606l3.098 3.098c.3905.3906 1.0237.3906 1.4142 0L10.707 8.599c.3905-.3905.3905-1.0237 0-1.4142z"/></svg>
